X:1
T:My Love, Forgive Me
T:My Love, Forgive Me
C:Gino Mescoli
Z:All Rights Reserved
L:1/8
M:2/2
K:C
V:1 treble nm="Voice"
%%MIDI program 52
V:1
 z2 B2 c2 d2 |"C" d3 c c4 |"Am7" z BBA AGAB |"F" B3 A A4 |"A7" z GGF FEFG |"Dm" G3 F F4 | %6
w: My love for-|give * me|I did- n't mean for it to|end like this,|I did- n't mean to have you|fall in love,|
w: ||||||
"Dm7" z2 B,2"G+7" A3 G |"Em7""Eb7" G8- |"Dm7" G2 B2 c2 d2 |"C" d3 c c3 B- |"Am7" B2- (3BBA AGAB | %11
w: in love with|me.|* My love, please|kiss * me, ar-|* * ri- ve- der- cia mo re|
w: |||||
"F" B3 A A4 |"A7" z GGF FEFG |"Dm" G3 F F4 |"Dm7" z2 A2"G7" c2 B2 |"C""F" c8- | %16
w: kiss * me.|re- mem- ber when we part, you'll|have my heart,|I love you|so!|
w: |||||
"C" c2 (3z EF GC (3z DE |"Dm7" D4 D4 |"G7" z2 (3z B,C DB, (3z A,G, |"Cmaj9" E8 | %20
w: * It was just a slight flir-|ta- tion,|that was all it was to|be.|
w: ||||
"C" z ccB"Cdim" BA- (3AAG |"Dm7" A4 A4 | z ccB"G7" BA"G+7"AG |"C""B7" A8 |"C" z2 (3z EF GC (3z DE | %25
w: How could I know this * fas- ci-|na- tion,|would turn to love for you and|me.|How to tell you of my|
w: |||||
"Dm7" D4 D4 |"G7" z2 (3z B,C DB, (3z A,G, |"Cmaj9" E8 |"C" z ccB"Cdim" BA- (3AAG |"Dm7" A4 A4 | %30
w: heart- ache?|How to tell you I'm not|free?|How can I bear to * see your|heart break?|
w: |||||
"G7" z2 (3eed dccA |"C""F" c8 |"Dm7" z2 B2 c2 d2 |"C" d3 c c4 |"Am7" z BBA AGAB |"F" B3 A A4 | %36
w: To see your hear break o- ver|me.|A- mor- e|scu- sa- mi|se sto pian- gen- do~a mor- e|scu- sa- mi|
w: ||(My love for-|give * me|I did- n't mean for it to|end like this,|
"A7" z GGF FEFG |"Dm" G3 F F4 |"Dm7" z2 B,2"G+7" A3 G |"Em7""Eb7" G8- |"Dm7" G2 B2 c2 d2 | %41
w: ma ho ca- pi- to che la-|scien- do- ti|io so- fri-|ro.|* A- mo- re|
w: I did- n't mean for you to|fall in love,|on love with|me.|* My love please|
"C" d3 c c3 B- |"Am7" B2- (3BBA AGAB |"F" B3 A A4 |"A7" z GGF FEFG |"Dm" G3 F F4 | %46
w: ba- cia- mi ar-|* * ri- ve- der- cia- mo- re|ba cia- me|e se mi pen- se- rai ri-|cor- da- ti|
w: kiss * me, ar-|* * re- ve- der- cia- mo- re|kiss * me.|re- mem- ber when we part, you'll|have my heart,)|
"Dm7" z2 A2"G7" c2 B2 |"C""Am7" c8 |"Dm7" z2 A2"G7" c2 B2 |"C""Am7" c8 |"Dm7" z2 A2"G7" c2 B2 | %51
w: che a- mo|te.|I love you|so!|I love you|
w: |||||
"C" c8 |] %52
w: so!|
w: |

